X: 1
T: The Clarges Lamentation
B: A COLECTION of the most Celebrated Irish Tunes2 p.b
M: C  
L: 1/8
K: Edor
B,A,B,D E2EF | G2GA B2ed | (ef)(ed) B2AG | (FG)(AF) (EF)(ED) |
B,A,B,D E2EF | G2GA B2ed | (ef)(ed) B2AG | EFGA B,2E2 | E4 ||
e2dB BABd | e2ef g2ga | g2B2 fefg | f2ed edef | e2dB g2fe |
e3d BdAB | G2GF E2EF | GFGA BABd | efed B2AG | FGAB B,2E2 | E4 |]
